packages/components/Atoms/Icon/assets/img/rpl_icon_ppt.svg

<svg width="21" height="20" viewBox="0 0 21 20" overflow="visible" xmlns="http://www.w3.org/2000/svg">
  <path fill-rule="evenodd" clip-rule="evenodd" d="M10 5V2.824L12.176 5H10ZM10.003 0H1C0.447 0 0 0.447 0 1V19C0 19.553 0.447 20 1 20H14C14.553 20 15 19.553 15 19V16H13V18H2V2H8V6C8 6.553 8.447 7 9 7H13V9H15V4.997L10.003 0Z"
    fill="inherit" />
  <path fill-rule="evenodd" clip-rule="evenodd" d="M9.89837 11.1259H9.20537V12.1339H9.89837C10.2344 12.1339 10.4304 11.8889 10.4304 11.6299C10.4304 11.3709 10.2344 11.1259 9.89837 11.1259ZM9.95437 13.2329H9.20537V15.0129H7.97937V10.0259H9.95437C11.0604 10.0259 11.6564 10.8109 11.6564 11.6299C11.6564 12.4489 11.0604 13.2329 9.95437 13.2329Z"
    fill="inherit" />
  <path fill-rule="evenodd" clip-rule="evenodd" d="M14.1475 11.1259H13.4545V12.1339H14.1475C14.4835 12.1339 14.6795 11.8889 14.6795 11.6299C14.6795 11.3709 14.4835 11.1259 14.1475 11.1259ZM14.2035 13.2329H13.4545V15.0129H12.2285V10.0259H14.2035C15.3095 10.0259 15.9055 10.8109 15.9055 11.6299C15.9055 12.4489 15.3095 13.2329 14.2035 13.2329Z"
    fill="inherit" />
  <path fill-rule="evenodd" clip-rule="evenodd" d="M18.7744 11.1181V15.0131H17.5484V11.1181H16.3234V10.0261H20.0004V11.1181H18.7744Z"
    fill="inherit" />
</svg>

<svg width="21" height="20" overflow="visible" xmlns="http://www.w3.org/2000/svg"><path fill-rule="evenodd" clip-rule="evenodd" d="M10 5V2.824L12.176 5H10zm.003-5H1a1 1 0 00-1 1v18a1 1 0 001 1h13a1 1 0 001-1v-3h-2v2H2V2h6v4a1 1 0 001 1h4v2h2V4.997L10.003 0z" fill="inherit"/><path fill-rule="evenodd" clip-rule="evenodd" d="M9.898 11.126h-.693v1.008h.693c.336 0 .532-.245.532-.504 0-.26-.196-.504-.532-.504zm.056 2.107h-.749v1.78H7.98v-4.987h1.975c1.106 0 1.702.785 1.702 1.604 0 .819-.596 1.603-1.702 1.603zM14.148 11.126h-.694v1.008h.694c.335 0 .532-.245.532-.504 0-.26-.197-.504-.532-.504zm.056 2.107h-.75v1.78h-1.226v-4.987h1.976c1.105 0 1.701.785 1.701 1.604 0 .819-.595 1.603-1.701 1.603zM18.774 11.118v3.895h-1.226v-3.895h-1.225v-1.092H20v1.092h-1.226z" fill="inherit"/></svg>
